{
  "compressionlevel": -1,
  "width": 24,
  "height": 16,
  "tilewidth": 16,
  "tileheight": 16,
  "infinite": false,
  "orientation": "orthogonal",
  "renderorder": "right-down",
  "type": "map",
  "version": "1.10",
  "tiledversion": "1.11.0",
  "nextlayerid": 3,
  "nextobjectid": 1,
  "tilesets": [
    {
      "firstgid": 1,
      "name": "indoor",
      "image": "../../assets/graphics/graphics/tilesets/indoor.png",
      "imagewidth": 640,
      "imageheight": 576,
      "tilewidth": 16,
      "tileheight": 16,
      "columns": 40,
      "tilecount": 1440,
      "margin": 0,
      "spacing": 0
    }
  ],
  "layers": [
    {
      "id": 1,
      "name": "ground",
      "type": "tilelayer",
      "width": 24,
      "height": 16,
      "x": 0,
      "y": 0,
      "opacity": 1,
      "visible": true,
      "data": [
        33,
        33,
        33,
        33,
        33,
        33,
        33,
        33,
        33,
        33,
        33,
        33,
        33,
        33,
        33,
        33,
        33,
        33,
        33,
        33,
        33,
        33,
        33,
        33,
        33,
        33,
        33,
        33,
        33,
        33,
        33,
        33,
        33,
        33,
        33,
        33,
        33,
        33,
        33,
        33,
        33,
        33,
        33,
        33,
        33,
        33,
        33,
        33,
        33,
        33,
        33,
        33,
        33,
        33,
        33,
        33,
        33,
        33,
        33,
        33,
        33,
        33,
        33,
        33,
        33,
        33,
        33,
        33,
        33,
        33,
        33,
        33,
        33,
        33,
        33,
        33,
        33,
        33,
        33,
        33,
        33,
        33,
        33,
        33,
        33,
        33,
        33,
        33,
        33,
        33,
        33,
        33,
        33,
        33,
        33,
        33,
        33,
        33,
        33,
        33,
        33,
        33,
        33,
        33,
        33,
        33,
        33,
        33,
        33,
        33,
        33,
        33,
        33,
        33,
        33,
        33,
        33,
        33,
        33,
        33,
        33,
        33,
        33,
        33,
        33,
        33,
        33,
        33,
        33,
        33,
        33,
        33,
        33,
        33,
        33,
        33,
        33,
        33,
        33,
        33,
        33,
        33,
        33,
        33,
        33,
        33,
        33,
        33,
        33,
        33,
        33,
        33,
        33,
        33,
        33,
        33,
        33,
        33,
        33,
        33,
        33,
        33,
        33,
        33,
        33,
        33,
        33,
        33,
        33,
        33,
        33,
        33,
        33,
        33,
        33,
        33,
        33,
        33,
        33,
        33,
        33,
        33,
        33,
        33,
        33,
        33,
        33,
        33,
        33,
        33,
        33,
        33,
        33,
        33,
        33,
        33,
        33,
        33,
        33,
        33,
        33,
        33,
        33,
        33,
        33,
        33,
        33,
        33,
        33,
        33,
        33,
        33,
        33,
        33,
        33,
        33,
        33,
        33,
        33,
        33,
        33,
        33,
        33,
        33,
        33,
        33,
        33,
        33,
        33,
        33,
        33,
        33,
        33,
        33,
        33,
        33,
        33,
        33,
        33,
        33,
        33,
        33,
        33,
        33,
        33,
        33,
        33,
        33,
        33,
        33,
        33,
        33,
        33,
        33,
        33,
        33,
        33,
        33,
        33,
        33,
        33,
        33,
        33,
        33,
        33,
        33,
        33,
        33,
        33,
        33,
        33,
        33,
        33,
        33,
        33,
        33,
        33,
        33,
        33,
        33,
        33,
        33,
        33,
        33,
        33,
        33,
        33,
        33,
        33,
        33,
        33,
        33,
        33,
        33,
        33,
        33,
        33,
        33,
        33,
        33,
        33,
        33,
        33,
        33,
        33,
        33,
        33,
        33,
        33,
        33,
        33,
        33,
        33,
        33,
        33,
        33,
        33,
        33,
        33,
        33,
        33,
        33,
        33,
        33,
        33,
        33,
        33,
        33,
        33,
        33,
        33,
        33,
        33,
        33,
        33,
        33,
        33,
        33,
        33,
        33,
        33,
        33,
        33,
        33,
        33,
        33,
        33,
        33,
        33,
        33,
        33,
        33,
        33,
        33,
        33,
        33,
        33,
        33,
        33,
        33,
        33,
        33,
        33,
        33,
        33,
        33,
        33,
        33,
        33,
        33,
        33,
        33,
        33,
        33,
        33,
        33,
        33,
        33,
        33,
        33,
        33,
        33,
        33,
        33
      ]
    },
    {
      "id": 2,
      "name": "buildings",
      "type": "objectgroup",
      "draworder": "topdown",
      "opacity": 1,
      "visible": true,
      "x": 0,
      "y": 0,
      "objects": []
    }
  ]
}
